img/dark/f7.svg

<?xml version="1.0" encoding="UTF-8"?>
<svg width="24px" height="24px" viewBox="0 0 24 24" version="1.1" xmlns="http://www.w3.org/2000/svg" xmlns:xlink="http://www.w3.org/1999/xlink">
    <!-- Generator: Sketch 60.1 (88133) - https://sketch.com -->
    <title>f7_dark</title>
    <desc>Created with Sketch.</desc>
    <g id="f7_dark" stroke="none" stroke-width="1" fill="none" fill-rule="evenodd">
        <path d="M6,10 C3.790861,10 2,8.209139 2,6 C2,3.790861 3.790861,2 6,2 C7.86392711,2 9.43008706,3.27489272 9.87404517,5.00024347 L15.75,5 C17.959139,5 19.75,6.790861 19.75,9 C19.75,11.1421954 18.0660315,12.8910789 15.9496403,12.9951047 L15.75,13 L7.75,13 C6.6454305,13 5.75,13.8954305 5.75,15 C5.75,16.0543618 6.56587779,16.9181651 7.60073766,16.9945143 L7.75,17 L14.1259548,17.0002435 C14.5699129,15.2748927 16.1360729,14 18,14 C20.209139,14 22,15.790861 22,18 C22,20.209139 20.209139,22 18,22 C16.1364348,22 14.570521,20.7256022 14.1262135,19.0007613 L7.75,19 C5.540861,19 3.75,17.209139 3.75,15 C3.75,12.8578046 5.43396847,11.1089211 7.55035966,11.0048953 L7.75,11 L15.75,11 C16.8545695,11 17.75,10.1045695 17.75,9 C17.75,7.9456382 16.9341222,7.08183488 15.8992623,7.00548574 L15.75,7 L9.87378648,7.00076134 C9.42947895,8.72560224 7.86356525,10 6,10 Z M18,16 C16.8954305,16 16,16.8954305 16,18 C16,19.1045695 16.8954305,20 18,20 C19.1045695,20 20,19.1045695 20,18 C20,16.8954305 19.1045695,16 18,16 Z M6,4 C4.8954305,4 4,4.8954305 4,6 C4,7.1045695 4.8954305,8 6,8 C7.1045695,8 8,7.1045695 8,6 C8,4.8954305 7.1045695,4 6,4 Z" id="形状结合" fill="#FFFFFF"></path>
    </g>
</svg>

<svg xmlns="http://www.w3.org/2000/svg" width="24" height="24" xmlns:v="https://vecta.io/nano"><path d="M6 10a4 4 0 1 1 0-8c1.864 0 3.43 1.275 3.874 3h5.876a4 4 0 0 1 .2 7.995l-.2.005h-8a2 2 0 0 0-.149 3.995l.15.005h6.376c.444-1.725 2-3 3.874-3a4 4 0 1 1 0 8c-1.864 0-3.43-1.274-3.874-3H7.75a4 4 0 0 1-.2-7.995l.2-.005h8a2 2 0 0 0 .149-3.995L15.75 7H9.874c-.444 1.725-2 3-3.874 3zm12 6a2 2 0 1 0 0 4 2 2 0 1 0 0-4zM6 4a2 2 0 1 0 0 4 2 2 0 1 0 0-4z" fill="#fff" fill-rule="evenodd"/></svg>
